components/Common/Svg/svgs/kotlin.svg

<svg
  width="137"
  height="30"
  viewBox="0 0 137 30"
  fill="none"
  xmlns="http://www.w3.org/2000/svg"
>
  <path
    d="M38.0117 1.21306H44.3304L44.3304 13.585L55.983 1.21306H63.6147L51.9212 13.2211L64.148 29.515L56.5575 29.515L47.6539 17.4667L44.3304 20.8628L44.3303 29.515H38.0117L38.0117 1.21222V1.21306Z"
    fill="#6A6A6A"
  ></path>
  <path
    d="M60.7891 18.8006V18.72C60.7891 12.4936 65.877 7.43942 72.7289 7.43942C79.54 7.43942 84.5867 12.4125 84.5867 18.6389V18.7198C84.5867 24.9462 79.4989 29.9998 72.6469 29.9998C65.8358 29.9998 60.7891 25.0267 60.7891 18.8003V18.8006ZM78.4322 18.8006V18.72C78.4322 15.5258 76.0935 12.7361 72.6469 12.7361C69.0773 12.7361 66.9436 15.4449 66.9436 18.6391V18.7201C66.9436 21.9139 69.2823 24.7037 72.7289 24.7037C76.2985 24.7037 78.4322 21.9949 78.4322 18.8006V18.8006Z"
    fill="#6A6A6A"
  ></path>
  <path
    d="M86.3095 23.3694V13.1H83.6836V7.84389H86.3095L86.3096 2.30472H92.5462V7.84389H97.7158V13.1H92.5462V22.3589C92.5462 23.7737 93.1615 24.4613 94.5566 24.4613C95.7055 24.4613 96.7313 24.1783 97.6337 23.6928V28.6256C96.3208 29.3938 94.8027 29.8789 92.7102 29.8789C88.8945 29.8789 86.3095 28.3829 86.3095 23.3695L86.3095 23.3694Z"
    fill="#6A6A6A"
  ></path>
  <path
    d="M99.5078 0H105.744L105.744 29.5139H99.5078L99.5078 0H99.5078Z"
    fill="#6A6A6A"
  ></path>
  <path
    d="M107.996 0H114.561V5.45833H107.996L107.996 0H107.996ZM108.16 7.84361H114.397L114.397 29.5147L108.16 29.5147L108.16 7.84361V7.84361Z"
    fill="#6A6A6A"
  ></path>
  <path
    d="M116.77 7.84362H123.006V10.9164C124.442 9.09698 126.289 7.43945 129.448 7.43945C134.167 7.43945 136.916 10.5122 136.916 15.4853V29.5147L130.679 29.5147V17.4258C130.679 14.515 129.284 13.0189 126.904 13.0189C124.524 13.0189 123.006 14.515 123.006 17.4258L123.006 29.5147H116.77L116.77 7.84362L116.77 7.84362Z"
    fill="#6A6A6A"
  ></path>
  <path
    d="M14.4644 1.19879L0.046875 16.1395V29.4945L14.4438 15.2842L28.7643 1.19879H14.4644Z"
    fill="url(#paint0_linear)"
  ></path>
  <path
    d="M0.046875 29.4945L14.4438 15.2842L28.7642 29.4945H0.046875Z"
    fill="url(#paint1_linear)"
  ></path>
  <path
    d="M0.046875 1.19879H14.4647L0.046875 16.1394V1.19879Z"
    fill="url(#paint2_linear)"
  ></path>
  <defs>
    <linearGradient
      id="paint0_linear"
      x1="-3.20777"
      y1="25.6581"
      x2="19.4789"
      y2="2.63498"
      gradientUnits="userSpaceOnUse"
    >
      <stop stop-color="#3E3E3E"></stop>
      <stop offset="1" stop-color="#949494"></stop>
    </linearGradient>
    <linearGradient
      id="paint1_linear"
      x1="10.1751"
      y1="33.6528"
      x2="22.1266"
      y2="21.5231"
      gradientUnits="userSpaceOnUse"
    >
      <stop stop-color="#575757"></stop>
      <stop offset="1" stop-color="#9D9D9D"></stop>
    </linearGradient>
    <linearGradient
      id="paint2_linear"
      x1="-1.27022"
      y1="9.96693"
      x2="9.17604"
      y2="-0.634087"
      gradientUnits="userSpaceOnUse"
    >
      <stop stop-color="#808080"></stop>
      <stop offset="1" stop-color="#727272"></stop>
    </linearGradient>
  </defs>
</svg>

<svg width="137" height="30" viewBox="0 0 137 30" fill="none" xmlns="http://www.w3.org/2000/svg"><path d="M38.012 1.213h6.318v12.372L55.983 1.213h7.632L51.92 13.221l12.227 16.294h-7.59l-8.904-12.048-3.324 3.396v8.652h-6.318V1.212v.001Z" fill="#6A6A6A"/><path d="M60.79 18.8v-.08c0-6.226 5.087-11.28 11.939-11.28 6.811 0 11.858 4.972 11.858 11.199v.08c0 6.227-5.088 11.28-11.94 11.28-6.811 0-11.858-4.972-11.858-11.199Zm17.642 0v-.08c0-3.194-2.338-5.984-5.785-5.984-3.57 0-5.703 2.709-5.703 5.903v.081c0 3.194 2.338 5.984 5.785 5.984 3.57 0 5.703-2.71 5.703-5.903Z" fill="#6A6A6A"/><path d="M86.31 23.37V13.1h-2.626V7.844h2.626v-5.54h6.236v5.54h5.17V13.1h-5.17v9.259c0 1.415.615 2.102 2.01 2.102a6.412 6.412 0 0 0 3.078-.768v4.933c-1.313.768-2.831 1.253-4.924 1.253-3.816 0-6.4-1.496-6.4-6.51ZM99.508 0h6.236v29.514h-6.236V0ZM107.996 0h6.565v5.458h-6.565V0Zm.164 7.844h6.237v21.67h-6.237V7.845ZM116.77 7.844h6.236v3.072c1.436-1.819 3.283-3.477 6.442-3.477 4.719 0 7.468 3.073 7.468 8.046v14.03h-6.237v-12.09c0-2.91-1.395-4.406-3.775-4.406s-3.898 1.496-3.898 4.407v12.089h-6.236V7.844Z" fill="#6A6A6A"/><path d="M14.464 1.199.047 16.139v13.355l14.397-14.21L28.764 1.2h-14.3Z" fill="url(#a)"/><path d="m.047 29.494 14.397-14.21 14.32 14.21H.047Z" fill="url(#b)"/><path d="M.047 1.199h14.418L.047 16.139V1.2Z" fill="url(#c)"/><defs><linearGradient id="a" x1="-3.208" y1="25.658" x2="19.479" y2="2.635" gradientUnits="userSpaceOnUse"><stop stop-color="#3E3E3E"/><stop offset="1" stop-color="#949494"/></linearGradient><linearGradient id="b" x1="10.175" y1="33.653" x2="22.127" y2="21.523" gradientUnits="userSpaceOnUse"><stop stop-color="#575757"/><stop offset="1" stop-color="#9D9D9D"/></linearGradient><linearGradient id="c" x1="-1.27" y1="9.967" x2="9.176" y2="-.634" gradientUnits="userSpaceOnUse"><stop stop-color="gray"/><stop offset="1" stop-color="#727272"/></linearGradient></defs></svg>
